svg/sort_clock_ascending_outline.svg

<svg xmlns="http://www.w3.org/2000/svg" viewBox="0 0 24 24"><path d="M20 17h3l-4 4-4-4h3V3h2zM8 5c-3.86 0-7 3.13-7 7s3.13 7 7 7c3.86 0 7-3.13 7-7s-3.13-7-7-7m0 2.15c2.67 0 4.85 2.17 4.85 4.85S10.68 16.85 8 16.85 3.15 14.68 3.15 12 5.32 7.15 8 7.15M7 9v3.69l3.19 1.84.75-1.3-2.44-1.41V9"/></svg>

<?xml version="1.0" encoding="UTF-8"?><!DOCTYPE svg PUBLIC "-//W3C//DTD SVG 1.1//EN" "http://www.w3.org/Graphics/SVG/1.1/DTD/svg11.dtd"><svg xmlns="http://www.w3.org/2000/svg" xmlns:xlink="http://www.w3.org/1999/xlink" version="1.1" id="mdi-sort-clock-ascending-outline" width="24" height="24" viewBox="0 0 24 24"><path d="M20 17H23L19 21L15 17H18V3H20V17M8 5C4.14 5 1 8.13 1 12C1 15.87 4.13 19 8 19C11.86 19 15 15.87 15 12C15 8.13 11.87 5 8 5M8 7.15C10.67 7.15 12.85 9.32 12.85 12C12.85 14.68 10.68 16.85 8 16.85C5.32 16.85 3.15 14.68 3.15 12C3.15 9.32 5.32 7.15 8 7.15M7 9V12.69L10.19 14.53L10.94 13.23L8.5 11.82V9" /></svg>
